X: 3
T: Petronella
Z: ceolachan
S: https://thesession.org/tunes/1083#setting14317
R: reel
M: 4/4
L: 1/8
K: Dmaj
|: dA |FGAF E2 AF | D2 D/D/D D2 F/G/A | d2 cd e2 d2 | c2 B/c/B ABAG |
F2 F2 E2 E2 | D[A,A][F,F][A,A] D3 A | d2 cd e2 c2 | dA F/G/A D2 :|
|: fd |F2 fd A2 af | g3 f edcB | A2 ec Agec | f2 fd AdAF |
D2 fd A2 af | gagf edcB | A2 ec A2 ge | d2 A2 D2 :|
